X:1
T:Title
%%score { 1 | 2 }
L:1/8
M:3/2
K:G
V:1 treble nm="Grand Piano"
V:2 treble 
V:1
 z4 z4[Q:1/4=140] B2 c2 | d4 [Ac]4 [GB]4 | [GB]4 [FA]4 [FA]3 [GB] | [Ac]4 [GB]4 [FA]4 |[M:4/4] B8 | %5
[M:2/4] D2 D2 |[M:6/4] E4 G2- G2 E4 | [G,B,D]4 [B,DG]2- [B,DG]2 [Dd]3 [Ec] | B4 G2- G2 A4 | %9
[M:4/4] [DG]8 |] %10
V:2
 z4 z4 [G,DG]2 [A,DF]2 | [B,DG]4[K:bass] [F,D]4 [G,D]4 | [D,D]4 [D,D]4 [D,C]3 [D,B,] | %3
 [D,A,]4 [D,D]4 [D,D]4 |[M:4/4][K:treble] [G,DG]8 |[M:2/4] [G,B,]2[K:bass] [B,,G,]2 | %6
[M:6/4] [C,G,C]4 [C,E,C]2- [C,E,C]2 [C,G,C]4 | G,,4 G,,2- G,,2 [B,,G,]3 [C,G,] | %8
 [D,G,D]4 [D,B,D]2- [D,B,D]2 [D,CD]4 |[M:4/4] [B,,B,]8 |] %10

